X:1
T:Title
%%score { ( 1 4 ) | ( 2 3 5 ) }
L:1/8
M:3/4
K:Db
V:1 treble nm="Grand Piano"
V:4 treble 
V:2 bass 
V:3 bass 
V:5 bass 
V:1
 z2 z2[Q:1/4=92] [DF]>[EG] | [FA]3 [Fd] (3[G-e]G[CGB] | [DFA]2 F2 D>E | F3 A (3BA[A,DF] | %4
[M:2/4] [A,CE]4 |[M:1/4] [A,DF]>[A,EG] |[M:3/4] [A,FA]3 [Fd] (3[G-e]G[CGB] | %7
 [DFA]2 [A,DF]2 [A,FA]>[FB] | c3 B (3dcB |[M:2/4] [CA]4 |[M:1/4] (3[G-A][GB]A |[M:3/4] e3 e (3edc | %12
 [Fd]B [DFA]2 (3[G-A]GA | e3 e (3ed[EGc] |[M:2/4] d-[Gd-] [Fd]2 |[M:1/4] [Ff]>[Fe] | %16
[M:3/4] [Fd]3 [Fd] (3ed[DGB] |[M:7/8] [DFA]2 [Fd]3 D>[DE] | %18
[M:3/4] [DF]3 [CB] (3[C-A]C[K:bass][G,CE] | [F,D]6 |[M:4/4][K:treble] z2 [FA]4 z2 | %21
 z2 [GB]2 d2 [FA]2- | [FA]2 z2 z4 | [CGA]2 [DFA]4 F2 | z2 [FA]4 z2 |[M:3/4] z6 |[M:1/4] [DFA]2 | %27
 [A,FA]>[FB] |[M:4/4] c3 B dc B2 |[M:3/4] A6 |[M:1/4] [A,DF]>[A,EG] |[M:4/4] [FA]4 z4 | %32
 [GB]2 d2 [FA]4 | [FA][EG][EG][FA] [GB]2 [CGA]2 | [DFA]4 F2 F>G | [FA]4 z4 | %36
[M:3/4] [DGB]2 [DGd]2 [DFA]2 |[M:1/4] A>A |[M:4/4] B3 e d2 [Gc]2 | %39
[M:7/8] d-[Ad-][Gd-] [Gd-] [Fd]3 |] %40
V:2
 z2 z2 [D,A,]>[D,A,] | [D,A,]3 [D,A,] (3[D,B,]-[D,B,d]D, | D,2 [D,A,D]2 [F,A,]>[E,A,D] | %3
 [D,A,D]3 [F,A,D] (3[G,A,-D-][F,A,D]D, |[M:2/4] A,,4 |[M:1/4] D,>D, | %6
[M:3/4] D,3 [D,A,] (3[D,B,]-[D,B,d]D, | D,2 D,2 D,>[D,A,] | z2 z2 E2 |[M:2/4] [A,,A,]4 | %10
[M:1/4] (3:2:2A,,2 G |[M:3/4][K:treble] [A,CG]3 [A,CG] (3[A,-CG-][A,DG][A,EG] | %12
 z G D,2 (3z[K:treble] BG[K:bass] | [A,CG]3 [A,CG][K:bass] (3[A,,-CG-][A,,DG]A,, | %14
[M:2/4] z B, A,2 |[M:1/4] [D,A,]>[C,=A,] |[M:3/4] [B,,B,]3 [B,,B,] (3:2:2[G,,B,G]2 G,, | %17
[M:7/8] D,2 [D,A,]3 [D,F,]>[B,,=G,] |[M:3/4] [A,,A,]3 [A,,G,] (3[A,,G,]-[A,,G,G]A,, | D,6 | %20
[M:4/4] z4 z2 D,2- | D,2 z2 .[G,B,]2 D,2- | D,2 z2 z4 | A,,2 z2 z2 [A,D]2 | [D,A,]2 z2 z4 | %25
[M:3/4] z6 |[M:1/4] D,2 | D,>[D,A,] |[M:4/4] z4 .B,2 z2 |[M:3/4] z E, F,2 G,2 |[M:1/4] D,>D, | %31
[M:4/4] D,D,D,D, A,2 D2 | G,G,G-[G,G] z2 A,2 | [A,,A,][A,,A,][A,,A,][A,,A,] [A,,A,]2 A,,2 | %34
 z4 [A,D]2 D>E | D,D,D,D, D,3 A |[M:3/4] G,,A,, B,,C, D,2 |[M:1/4] [F,D]>[F,D] | %38
[M:4/4][K:treble] [G,DG]3 [G,B,G] [A,F]2[K:bass] [A,,A,]2 | %39
[M:7/8] D,-[D,-_C][D,-B,] [D,-=A,] [D,_A,]3 |] %40
V:3
 x6 | x6 | x6 | x6 |[M:2/4] x4 |[M:1/4] x2 |[M:3/4] x6 | x6 | %8
 [E,A,E]3 [E,=G,E] (3[E,-B,][E,A,][E,G,D] |[M:2/4] x4 |[M:1/4] A,>A,, |[M:3/4][K:treble] x6 | %12
 [D,D]2 z2 z[K:treble] z/[K:bass] A,,/ | x4[K:bass] x2 |[M:2/4] D,4 |[M:1/4] x2 |[M:3/4] x6 | %17
[M:7/8] x7 |[M:3/4] x6 | x6 |[M:4/4] D,>D, D,D, D,D, A,2 | D2 G,G, G-[G,G] z2 | %22
 A,2 [A,,A,][A,,A,] [A,,A,][A,,A,] [A,,A,]2 | z2 D,6 | D>E D,D, D,D, D,2- | %25
[M:3/4] D,A G,,A,, B,,C, |[M:1/4] x2 | x2 |[M:4/4] [E,A,E]3 [E,=G,E] [E,E]-[E,A,E] [E,G,D]2 | %29
[M:3/4] A,,6 |[M:1/4] x2 |[M:4/4] z4 D,4 | z2 .[G,B,]2 D,4 | x8 | D,6 [D,A,]2 | x8 |[M:3/4] x6 | %37
[M:1/4] x2 |[M:4/4][K:treble] x6[K:bass] x2 |[M:7/8] A, z z z z z2 |] %40
V:4
 x6 | x6 | x6 | x6 |[M:2/4] x4 |[M:1/4] x2 |[M:3/4] x6 | x6 | x6 |[M:2/4] x4 |[M:1/4] z z/ A,/ | %11
[M:3/4] x6 | z2 z2 C>C | x6 |[M:2/4] .[DF]2 z2 |[M:1/4] x2 |[M:3/4] x6 |[M:7/8] x7 | %18
[M:3/4] x16/3[K:bass] x2/3 | x6 |[M:4/4][K:treble] [A,DF]>[A,EG] A,A, A,A, [Fd]2- | %21
 [Fd]2 DD z B, D2 | z2 [FA][EG] [EG][FA] [GB]2 | x8 | F>G DD DD [DFd]2- | %25
[M:3/4] [DFd]c [DGB]2 [DGd]2 |[M:1/4] x2 | x2 |[M:4/4] x8 |[M:3/4] .[A,C]2 D2 E2 |[M:1/4] x2 | %31
[M:4/4] A,A,A,A, [Fd]4 | DD z B, D2 z2 | x8 | x8 | DDDD [DFd]3 c |[M:3/4] x6 |[M:1/4] x2 | %38
[M:4/4] x8 |[M:7/8] F z z z z z2 |] %40
V:5
 x6 | x6 | x6 | x6 |[M:2/4] x4 |[M:1/4] x2 |[M:3/4] x6 | x6 | x6 |[M:2/4] x4 |[M:1/4] x2 | %11
[M:3/4][K:treble] x6 | z2 z2 A,,2[K:treble][K:bass] | x4[K:bass] x2 |[M:2/4] x4 |[M:1/4] x2 | %16
[M:3/4] x6 |[M:7/8] x7 |[M:3/4] x6 | x6 |[M:4/4] x8 | x8 | x8 | x8 | x8 |[M:3/4] x6 |[M:1/4] x2 | %27
 x2 |[M:4/4] x8 |[M:3/4] x6 |[M:1/4] x2 |[M:4/4] x8 | x8 | x8 | x8 | x8 |[M:3/4] x6 |[M:1/4] x2 | %38
[M:4/4][K:treble] x6[K:bass] x2 |[M:7/8] x7 |] %40

